assets/fc/fc-money-transfer.svg

<svg xmlns="http://www.w3.org/2000/svg" width="100%" height="100%" viewBox="0 0 48 48"><path fill="#78909C" d="M40 41H8c-2.2 0-4-1.8-4-4V16.1c0-1.3.6-2.5 1.7-3.3L24 0l18.3 12.8c1.1.7 1.7 2 1.7 3.3V37c0 2.2-1.8 4-4 4z"/><path fill="#AED581" d="M14 1h20v31H14z"/><g fill="#558B2F"><path d="M13 0v33h22V0H13zm20 31H15V2h18v29z"/><path d="M34 3c0 1.7-.3 3-2 3s-3-1.3-3-3 1.3-2 3-2 2 .3 2 2zM16 1c1.7 0 3 .3 3 2s-1.3 3-3 3-2-1.3-2-3 .3-2 2-2z"/><circle cx="24" cy="8" r="2"/><circle cx="24" cy="20" r="6"/></g><path fill="#CFD8DC" d="M40 41H8c-2.2 0-4-1.8-4-4V17l20 13 20-13v20c0 2.2-1.8 4-4 4z"/></svg>

<svg xmlns="http://www.w3.org/2000/svg" width="100%" height="100%" viewBox="0 0 48 48"><path fill="#78909C" d="M40,41H8c-2.2,0-4-1.8-4-4l0-20.9c0-1.3,0.6-2.5,1.7-3.3L24,0l18.3,12.8c1.1,0.7,1.7,2,1.7,3.3V37 C44,39.2,42.2,41,40,41z"/><path fill="#AED581" d="M14 1H34V32H14z"/><g fill="#558B2F"><path d="M13,0v33h22V0H13z M33,31H15V2h18V31z"/><path d="M34 3c0 1.7-.3 3-2 3-1.7 0-3-1.3-3-3s1.3-2 3-2C33.7 1 34 1.3 34 3zM16 1c1.7 0 3 .3 3 2s-1.3 3-3 3-2-1.3-2-3S14.3 1 16 1z"/><circle cx="24" cy="8" r="2"/><circle cx="24" cy="20" r="6"/></g><path fill="#CFD8DC" d="M40,41H8c-2.2,0-4-1.8-4-4l0-20l20,13l20-13v20C44,39.2,42.2,41,40,41z"/></svg>
